Sources/FrostedUI/Resources/Icons.xcassets/quoteLeft24.imageset/quote-left-24.svg

<svg width="24" height="24" viewBox="0 0 24 24" fill="none" xmlns="http://www.w3.org/2000/svg" data-fui-icon="true">
  <path
    d="M7.70435 5.12109C8.05164 4.89549 8.51576 4.99453 8.74146 5.3418C8.96702 5.68906 8.86892 6.1532 8.52173 6.37891C6.91117 7.42561 5.62267 8.33528 4.74634 9.54297C4.43755 9.96856 4.1746 10.4398 3.97095 10.9785C4.69522 10.4919 5.57119 10.208 6.51001 10.208C8.97158 10.208 11.0002 12.1588 11.0002 14.6045C11.0001 17.05 8.97151 19 6.51001 19C4.05552 18.9999 2.03227 17.0608 2.02075 14.625C1.88348 12.0206 2.4489 10.1556 3.53247 8.66211C4.59284 7.20082 6.10954 6.15757 7.70435 5.12109ZM18.7043 5.12109C19.0516 4.89549 19.5157 4.99453 19.7415 5.3418C19.967 5.68906 19.8689 6.1532 19.5217 6.37891C17.9112 7.42561 16.6227 8.3353 15.7463 9.54297C15.4376 9.96855 15.1746 10.4398 14.9709 10.9785C15.6952 10.4919 16.5712 10.208 17.51 10.208C19.9716 10.208 22.0002 12.1588 22.0002 14.6045C22.0001 17.05 19.9715 19 17.51 19C15.0556 18.9999 13.0323 17.0608 13.0208 14.625C12.8835 12.0206 13.449 10.1556 14.5325 8.66211C15.5929 7.20084 17.1096 6.15756 18.7043 5.12109Z"
    fill="currentColor"
  />
</svg>

<svg xmlns="http://www.w3.org/2000/svg" width="24" height="24" fill="none" data-fui-icon="true" viewBox="0 0 24 24"><path fill="currentColor" d="M7.704 5.121a.75.75 0 0 1 .818 1.258c-1.61 1.047-2.9 1.956-3.776 3.164a6 6 0 0 0-.775 1.436c.724-.487 1.6-.771 2.539-.771 2.462 0 4.49 1.95 4.49 4.397C11 17.05 8.972 19 6.51 19c-2.454 0-4.478-1.94-4.49-4.375-.137-2.604.429-4.47 1.512-5.963 1.06-1.461 2.578-2.504 4.172-3.54m11 0a.75.75 0 0 1 .818 1.258c-1.61 1.047-2.9 1.956-3.776 3.164a6 6 0 0 0-.775 1.436c.724-.487 1.6-.771 2.539-.771 2.462 0 4.49 1.95 4.49 4.397C22 17.05 19.971 19 17.51 19c-2.454 0-4.478-1.94-4.49-4.375-.136-2.604.429-4.47 1.513-5.963 1.06-1.461 2.577-2.504 4.171-3.54"/></svg>
